X: 15656
T: Going To The Well For Water
R: slide
M: 12/8
K: Dmajor
|:"D"A2"d"f A2"d"f A2"d"f fe"d"d|"G"B2"g"g B2"g"g B2"g"g gf"g"e|
"A"cd"a"c Bc"a"B Ac"a"e a2"a"a|1 "G"gf"g"e "A"cd"a"e "D"(d2"d"d) dc"G"B:|2 "G"gf"g"e "A"cd"a"e "D"(d2"d"d) d2"A"e||
|:"D"f2"d"f fe"d"d "A"e2"a"e ed"a"c|"D"(d2"d"d) dc"G"B "A"(c2"a"c) cB"a"A|
"G"GB"g"B GB"g"B "D"FA"d"A FA"d"A|1 "A"ED"a"E e2"a"d cB"a"c "D"d2"A"e:|2 "A"ED"a"E e2"a"d cB"a"c "D"dc"G"B||

